src/pos-icons/cart-arrow-right.svg

<svg height="24" viewBox="0 0 24 24" width="24" xmlns="http://www.w3.org/2000/svg"><path d="m9 20a2 2 0 0 1 -2 2 2 2 0 0 1 -2-2 2 2 0 0 1 2-2 2 2 0 0 1 2 2m8-2a2 2 0 0 0 -2 2 2 2 0 0 0 2 2 2 2 0 0 0 2-2 2 2 0 0 0 -2-2m-9.8-3.37c-.01.04-.01.08 0 .12a.25.25 0 0 0 .25.25h11.55v2h-12a2 2 0 0 1 -2-2c0-.35.07-.69.24-1l1.36-2.41-3.6-7.59h-2v-2h3.27l.94 2h14.79a1 1 0 0 1 1 1c0 .17-.05.34-.12.5l-3.58 6.5c-.36.62-1.03 1-1.75 1h-7.45zm1.8-5.13h4v2l3-3-3-3v2h-4z"/></svg>

<?xml version="1.0" encoding="UTF-8"?><!DOCTYPE svg PUBLIC "-//W3C//DTD SVG 1.1//EN" "http://www.w3.org/Graphics/SVG/1.1/DTD/svg11.dtd"><svg xmlns="http://www.w3.org/2000/svg" xmlns:xlink="http://www.w3.org/1999/xlink" version="1.1" id="mdi-cart-arrow-right" width="24" height="24" viewBox="0 0 24 24"><path d="M9,20A2,2 0 0,1 7,22A2,2 0 0,1 5,20A2,2 0 0,1 7,18A2,2 0 0,1 9,20M17,18A2,2 0 0,0 15,20A2,2 0 0,0 17,22A2,2 0 0,0 19,20A2,2 0 0,0 17,18M7.2,14.63C7.19,14.67 7.19,14.71 7.2,14.75A0.25,0.25 0 0,0 7.45,15H19V17H7A2,2 0 0,1 5,15C5,14.65 5.07,14.31 5.24,14L6.6,11.59L3,4H1V2H4.27L5.21,4H20A1,1 0 0,1 21,5C21,5.17 20.95,5.34 20.88,5.5L17.3,12C16.94,12.62 16.27,13 15.55,13H8.1L7.2,14.63M9,9.5H13V11.5L16,8.5L13,5.5V7.5H9V9.5Z" /></svg>
